!!!COM:	Bauldeweyn?/Josquin?/Mouton?
**kern	**kern
*part2	*part1
*staff2	*staff1
*clefF4	*clefGv2
*k[b-]	*k[b-]
*M2/1	*M2/1
=1-	=1-
1BB-	0r
2BB-	.
2AA	.
=2	=2
2BB-	1B-
2C	.
2.D	2B-
.	2A
4C	.
=3	=3
2D	2B-
2E	2c
2F	2.d
[2G	.
.	4c
=4	=4
4G]	2d
4F	.
4E	2.e
4D	.
2C	.
.	4d
2D	[2d
=5	=5
1E	2d]
.	2c
2r	1d
2D	.
=6	=6
2F	2r
2F	2A
2F	2c
4E	2c
4D	.
=7	=7
2.C	2c
.	4B-
4D	4A
4E	2.G
4F	.
[2G	.
.	4A
=8	=8
2G]	4B-
.	4c
4F	1d
4E	.
1D	.
.	4c
.	4B-
=9	=9
2r	1A
2.D	.
.	2r
4C	.
4D	[2A
4E	.
=10	=10
1.F	4A]
.	4G
.	4A
.	4B-
.	[1c
4E	.
4D	.
=11	=11
2.C	2c]
.	4B-
4D	4A
4E	2.G
4F	.
[2G	.
.	4A
=12	=12
2G]	4B-
.	4c
4F	1d
4E	.
2F	.
4E	4c
4D	4B-
=13	=13
4E	4c
4D	4B-
4C	1B-
4BB-	.
1C	.
.	2A
=14	=14
1BB-	0B-
2r	.
2BB-	.
=15	=15
2C	2r
2D	2F
1E	2.G
.	4A
=16	=16
2D	2B-
2BB-	2B-
2C	2A
2D	2F
=17	=17
2E-X	2G
2F	2A
4G	2B-
4F	.
4E-	[2c
4D	.
=18	=18
2C	4c]
.	4B-
2.D	4A
.	4G
.	2B-
4BB-	.
[2C	[2A
=19	=19
4C]	4A]
4BB-	4G
4AA	1G
4GG	.
1AA	.
.	2F
=20	=20
0GG	0G
==	==
*-	*-
